X:27
T:The Liar Reel
R:reel
C:Christian Vesvres
M:4/4
K:G
|:"G"B2BG AE2E|"G"DEG ABGBd|"Em"g2ge dg2g|"C"edBG "D"A2GA|
"G"BdBG AE2E|"G"DEGA BGBd|"Em"g2ge dg2g|
1 "C"edBA "G"G2GA:|2 "C"edBA "G"GABd| \
"C"e2eg edcB|"D"d2de dcBA|"Em"BE2E G2GA|"G"BGdB A2Bd|
"C"e2eg edcB|"D"d2de dcBA|"G"BE2E GD2D|"G"BGBd gedB|\
